X:1
T:Title
%%score { 1 | ( 2 3 ) }
L:1/8
Q:1/4=95
M:6/8
K:F
V:1 treble nm="Grand Piano"
V:2 bass 
V:3 bass 
V:1
 A2 A A2 F | B2 B A3 | A2 A ABA | [EG]2 [_E^F] [=EG]3 | A2 A A2 F | B2 B A3 | %6
w: W.~A.~Ogden * * *||||||
 [Fd]2 [Fd] [CFc]2 [CFA] | [A,CF]2 [B,CG] [A,CF]3 | [EG]2 [EG] [EG][FA][GB] | A2 A A3 | %10
w: ||||
 [EG]2 [EG] [FA]2 [DG] | F2 E F3 |] %12
w: ||
V:2
 [F,CF]2 [F,CF] [F,CF]2 [F,A,] | [F,DF]2 [F,DF] [F,CF]3 | z3 .F3 | [C,C]2 [C,C] [C,C]3 | %4
 [F,CF]2 [F,CF] [F,CF]2 [F,A,] | [F,DF]2 [F,^CF] [F,=CF]3 | [B,,B,]2 [B,,B,] A,,2 F,, | %7
 C,2 C, F,3 | [C,C]2 [C,C] [C,C]2 [C,C] | [F,CF]2 [F,CF] [F,CF]3 | [C,C]2 [C,C] [F,C]2 [B,,B,] | %11
 [C,A,C]2 [C,G,C] [F,A,C]3 |] %12
V:3
 x6 | x6 | [F,CF]2 [F,CF] [F,C]-[F,CG][F,CF] | x6 | x6 | x6 | x6 | x6 | x6 | x6 | x6 | x6 |] %12

